content/blogs/regnskap/hva-er-avvikshandtering/avviksanalyse-prosess.svg

<svg xmlns="http://www.w3.org/2000/svg" width="600" height="500" viewBox="0 0 600 500"><path fill="#f8f9fa" d="M0 0h600v500H0z"/><text x="300" y="30" fill="#2c3e50" font-family="Arial, sans-serif" font-size="20" font-weight="bold" text-anchor="middle">
    Flytskjema for Avviksanalyseprosessen
  </text><ellipse cx="300" cy="70" fill="#3498db" opacity=".9" rx="60" ry="25"/><text x="300" y="75" fill="#fff" font-family="Arial, sans-serif" font-size="12" font-weight="bold" text-anchor="middle">
    AVVIK OPPDAGET
  </text><path fill="none" stroke="#2c3e50" stroke-width="2" marker-end="url(#a)" d="M300 95v30"/><rect width="160" height="50" x="220" y="130" fill="#e74c3c" opacity=".9" rx="10"/><text x="300" y="150" fill="#fff" font-family="Arial, sans-serif" font-size="12" font-weight="bold" text-anchor="middle">
    INNLEDENDE VURDERING
  </text><text x="300" y="165" fill="#fff" font-family="Arial, sans-serif" font-size="10" text-anchor="middle">
    Klassifiser alvorlighetsgrad
  </text><path fill="none" stroke="#2c3e50" stroke-width="2" marker-end="url(#a)" d="M300 180v30"/><path fill="#f39c12" d="m300 215 50 25-50 25-50-25z" opacity=".9"/><text x="300" y="240" fill="#fff" font-family="Arial, sans-serif" font-size="10" font-weight="bold" text-anchor="middle">
    Kritisk?
  </text><path fill="none" stroke="#2c3e50" stroke-width="2" marker-end="url(#a)" d="M250 240h-70"/><text x="215" y="235" fill="#2c3e50" font-family="Arial, sans-serif" font-size="10" text-anchor="middle">
    JA
  </text><rect width="120" height="50" x="100" y="215" fill="#c0392b" opacity=".9" rx="10"/><text x="160" y="235" fill="#fff" font-family="Arial, sans-serif" font-size="11" font-weight="bold" text-anchor="middle">
    UMIDDELBAR
  </text><text x="160" y="248" fill="#fff" font-family="Arial, sans-serif" font-size="11" font-weight="bold" text-anchor="middle">
    HANDLING
  </text><text x="160" y="258" fill="#fff" font-family="Arial, sans-serif" font-size="9" text-anchor="middle">
    Stopp prosess
  </text><path fill="none" stroke="#2c3e50" stroke-width="2" marker-end="url(#a)" d="M160 265v30"/><path fill="none" stroke="#2c3e50" stroke-width="2" marker-end="url(#a)" d="M350 240h70"/><text x="385" y="235" fill="#2c3e50" font-family="Arial, sans-serif" font-size="10" text-anchor="middle">
    NEI
  </text><rect width="120" height="50" x="380" y="215" fill="#27ae60" opacity=".9" rx="10"/><text x="440" y="235" fill="#fff" font-family="Arial, sans-serif" font-size="11" font-weight="bold" text-anchor="middle">
    STANDARD
  </text><text x="440" y="248" fill="#fff" font-family="Arial, sans-serif" font-size="11" font-weight="bold" text-anchor="middle">
    PROSESS
  </text><text x="440" y="258" fill="#fff" font-family="Arial, sans-serif" font-size="9" text-anchor="middle">
    Planlagt analyse
  </text><path fill="none" stroke="#2c3e50" stroke-width="2" marker-end="url(#a)" d="M440 265v30"/><rect width="440" height="50" x="80" y="300" fill="#9b59b6" opacity=".9" rx="10"/><text x="300" y="320" fill="#fff" font-family="Arial, sans-serif" font-size="14" font-weight="bold" text-anchor="middle">
    ROOT CAUSE ANALYSIS
  </text><text x="300" y="335" fill="#fff" font-family="Arial, sans-serif" font-size="10" text-anchor="middle">
    Identifiser grunnårsak • Vurder påvirkning • Dokumenter funn
  </text><path fill="none" stroke="#2c3e50" stroke-width="2" d="M160 295v30H80M440 295v30h80"/><path fill="none" stroke="#2c3e50" stroke-width="2" marker-end="url(#a)" d="M300 350v30"/><rect width="200" height="50" x="50" y="385" fill="#34495e" opacity=".9" rx="10"/><text x="150" y="405" fill="#fff" font-family="Arial, sans-serif" font-size="12" font-weight="bold" text-anchor="middle">
    HANDLINGSPLAN
  </text><text x="150" y="420" fill="#fff" font-family="Arial, sans-serif" font-size="10" text-anchor="middle">
    Korrigerende tiltak
  </text><rect width="200" height="50" x="275" y="385" fill="#16a085" opacity=".9" rx="10"/><text x="375" y="405" fill="#fff" font-family="Arial, sans-serif" font-size="12" font-weight="bold" text-anchor="middle">
    DOKUMENTASJON
  </text><text x="375" y="420" fill="#fff" font-family="Arial, sans-serif" font-size="10" text-anchor="middle">
    Registrer endringer
  </text><rect width="200" height="50" x="350" y="385" fill="#d35400" opacity=".9" rx="10"/><text x="450" y="405" fill="#fff" font-family="Arial, sans-serif" font-size="12" font-weight="bold" text-anchor="middle">
    OPPFØLGING
  </text><text x="450" y="420" fill="#fff" font-family="Arial, sans-serif" font-size="10" text-anchor="middle">
    Forebyggende tiltak
  </text><path fill="none" stroke="#2c3e50" stroke-width="2" marker-end="url(#a)" d="m300 380-150 5"/><path fill="none" stroke="#2c3e50" stroke-width="2" marker-end="url(#a)" d="m300 380 75 5"/><path fill="none" stroke="#2c3e50" stroke-width="2" marker-end="url(#a)" d="m300 380 150 5"/><ellipse cx="300" cy="470" fill="#2c3e50" opacity=".9" rx="80" ry="25"/><text x="300" y="475" fill="#fff" font-family="Arial, sans-serif" font-size="12" font-weight="bold" text-anchor="middle">
    AVVIK LØST
  </text><path fill="none" stroke="#2c3e50" stroke-width="2" marker-end="url(#a)" d="M150 435v20h90v15"/><path fill="none" stroke="#2c3e50" stroke-width="2" marker-end="url(#a)" d="M375 435v20h-75v-10"/><path fill="none" stroke="#2c3e50" stroke-width="2" marker-end="url(#a)" d="M450 435v20h-90v15"/><defs><marker id="a" markerHeight="7" markerWidth="10" orient="auto" refX="9" refY="3.5"><path fill="#2c3e50" d="m0 0 10 3.5L0 7z"/></marker></defs></svg>

<svg width="600" height="500" viewBox="0 0 600 500" xmlns="http://www.w3.org/2000/svg">

  <rect width="600" height="500" fill="#f8f9fa"/>
  

  <text x="300" y="30" text-anchor="middle" font-family="Arial, sans-serif" font-size="20" font-weight="bold" fill="#2c3e50">
    Flytskjema for Avviksanalyseprosessen
  </text>
  

  <ellipse cx="300" cy="70" rx="60" ry="25" fill="#3498db" opacity="0.9"/>
  <text x="300" y="75" text-anchor="middle" font-family="Arial, sans-serif" font-size="12" font-weight="bold" fill="white">
    AVVIK OPPDAGET
  </text>
  

  <path d="M 300 95 L 300 125" stroke="#2c3e50" stroke-width="2" fill="none" marker-end="url(#arrowhead)"/>
  

  <rect x="220" y="130" width="160" height="50" fill="#e74c3c" opacity="0.9" rx="10"/>
  <text x="300" y="150" text-anchor="middle" font-family="Arial, sans-serif" font-size="12" font-weight="bold" fill="white">
    INNLEDENDE VURDERING
  </text>
  <text x="300" y="165" text-anchor="middle" font-family="Arial, sans-serif" font-size="10" fill="white">
    Klassifiser alvorlighetsgrad
  </text>
  

  <path d="M 300 180 L 300 210" stroke="#2c3e50" stroke-width="2" fill="none" marker-end="url(#arrowhead)"/>
  

  <polygon points="300,215 350,240 300,265 250,240" fill="#f39c12" opacity="0.9"/>
  <text x="300" y="240" text-anchor="middle" font-family="Arial, sans-serif" font-size="10" font-weight="bold" fill="white">
    Kritisk?
  </text>
  

  <path d="M 250 240 L 180 240" stroke="#2c3e50" stroke-width="2" fill="none" marker-end="url(#arrowhead)"/>
  <text x="215" y="235" text-anchor="middle" font-family="Arial, sans-serif" font-size="10" fill="#2c3e50">
    JA
  </text>
  

  <rect x="100" y="215" width="120" height="50" fill="#c0392b" opacity="0.9" rx="10"/>
  <text x="160" y="235" text-anchor="middle" font-family="Arial, sans-serif" font-size="11" font-weight="bold" fill="white">
    UMIDDELBAR
  </text>
  <text x="160" y="248" text-anchor="middle" font-family="Arial, sans-serif" font-size="11" font-weight="bold" fill="white">
    HANDLING
  </text>
  <text x="160" y="258" text-anchor="middle" font-family="Arial, sans-serif" font-size="9" fill="white">
    Stopp prosess
  </text>
  

  <path d="M 160 265 L 160 295" stroke="#2c3e50" stroke-width="2" fill="none" marker-end="url(#arrowhead)"/>
  

  <path d="M 350 240 L 420 240" stroke="#2c3e50" stroke-width="2" fill="none" marker-end="url(#arrowhead)"/>
  <text x="385" y="235" text-anchor="middle" font-family="Arial, sans-serif" font-size="10" fill="#2c3e50">
    NEI
  </text>
  

  <rect x="380" y="215" width="120" height="50" fill="#27ae60" opacity="0.9" rx="10"/>
  <text x="440" y="235" text-anchor="middle" font-family="Arial, sans-serif" font-size="11" font-weight="bold" fill="white">
    STANDARD
  </text>
  <text x="440" y="248" text-anchor="middle" font-family="Arial, sans-serif" font-size="11" font-weight="bold" fill="white">
    PROSESS
  </text>
  <text x="440" y="258" text-anchor="middle" font-family="Arial, sans-serif" font-size="9" fill="white">
    Planlagt analyse
  </text>
  

  <path d="M 440 265 L 440 295" stroke="#2c3e50" stroke-width="2" fill="none" marker-end="url(#arrowhead)"/>
  

  <rect x="80" y="300" width="440" height="50" fill="#9b59b6" opacity="0.9" rx="10"/>
  <text x="300" y="320" text-anchor="middle" font-family="Arial, sans-serif" font-size="14" font-weight="bold" fill="white">
    ROOT CAUSE ANALYSIS
  </text>
  <text x="300" y="335" text-anchor="middle" font-family="Arial, sans-serif" font-size="10" fill="white">
    Identifiser grunnårsak • Vurder påvirkning • Dokumenter funn
  </text>
  

  <path d="M 160 295 L 160 325 L 80 325" stroke="#2c3e50" stroke-width="2" fill="none"/>
  <path d="M 440 295 L 440 325 L 520 325" stroke="#2c3e50" stroke-width="2" fill="none"/>
  

  <path d="M 300 350 L 300 380" stroke="#2c3e50" stroke-width="2" fill="none" marker-end="url(#arrowhead)"/>
  

  <rect x="50" y="385" width="200" height="50" fill="#34495e" opacity="0.9" rx="10"/>
  <text x="150" y="405" text-anchor="middle" font-family="Arial, sans-serif" font-size="12" font-weight="bold" fill="white">
    HANDLINGSPLAN
  </text>
  <text x="150" y="420" text-anchor="middle" font-family="Arial, sans-serif" font-size="10" fill="white">
    Korrigerende tiltak
  </text>
  

  <rect x="275" y="385" width="200" height="50" fill="#16a085" opacity="0.9" rx="10"/>
  <text x="375" y="405" text-anchor="middle" font-family="Arial, sans-serif" font-size="12" font-weight="bold" fill="white">
    DOKUMENTASJON
  </text>
  <text x="375" y="420" text-anchor="middle" font-family="Arial, sans-serif" font-size="10" fill="white">
    Registrer endringer
  </text>
  

  <rect x="350" y="385" width="200" height="50" fill="#d35400" opacity="0.9" rx="10"/>
  <text x="450" y="405" text-anchor="middle" font-family="Arial, sans-serif" font-size="12" font-weight="bold" fill="white">
    OPPFØLGING
  </text>
  <text x="450" y="420" text-anchor="middle" font-family="Arial, sans-serif" font-size="10" fill="white">
    Forebyggende tiltak
  </text>
  

  <path d="M 300 380 L 150 385" stroke="#2c3e50" stroke-width="2" fill="none" marker-end="url(#arrowhead)"/>
  <path d="M 300 380 L 375 385" stroke="#2c3e50" stroke-width="2" fill="none" marker-end="url(#arrowhead)"/>
  <path d="M 300 380 L 450 385" stroke="#2c3e50" stroke-width="2" fill="none" marker-end="url(#arrowhead)"/>
  

  <ellipse cx="300" cy="470" rx="80" ry="25" fill="#2c3e50" opacity="0.9"/>
  <text x="300" y="475" text-anchor="middle" font-family="Arial, sans-serif" font-size="12" font-weight="bold" fill="white">
    AVVIK LØST
  </text>
  

  <path d="M 150 435 L 150 455 L 240 455 L 240 470" stroke="#2c3e50" stroke-width="2" fill="none" marker-end="url(#arrowhead)"/>
  <path d="M 375 435 L 375 455 L 300 455 L 300 445" stroke="#2c3e50" stroke-width="2" fill="none" marker-end="url(#arrowhead)"/>
  <path d="M 450 435 L 450 455 L 360 455 L 360 470" stroke="#2c3e50" stroke-width="2" fill="none" marker-end="url(#arrowhead)"/>
  

  <defs>
    <marker id="arrowhead" markerWidth="10" markerHeight="7" refX="9" refY="3.5" orient="auto">
      <polygon points="0 0, 10 3.5, 0 7" fill="#2c3e50"/>
    </marker>
  </defs>
</svg>
